X:864
T:Gander In the Pratie Hole
O:ireland
S:Sessions
Z:Nigel Gatherer
R:Jig
M:6/8
L:1/8
K:D
FAD FAD|GFG EFG|FAD FAD|GED D3|FAD FAD|
GFG EFG|fed ecA|GED D3::Add ded|=cAB cAG|
Add ded|=cAB c2 B|Add ded|=cAB cde|fed ecA|GED D3:|]
